X: 8678
T: Crossing The Rubicon
R: jig
M: 6/8
K: Eminor
~E3 BEB|dEc BAG|~E3 BEB|AFF FED|
~E3 BEB|dEc BAG-|G3 FAF|GFE FDB,:|
|:B3 efg|afd ^cAF|EeE dEc|BA^d ege|
B3 efg|afd ^cAF|G3 dBG|1 GFD BAd:|2 GFD BAF||

